icons/aws-logo.svg

<svg xmlns="http://www.w3.org/2000/svg" width="256" height="256" fill="none" viewBox="0 0 256 256"><rect width="256" height="256" fill="#F4F2ED" rx="60"/><path fill="#252F3E" d="M84.7447 111.961C84.7447 114.395 85.0079 116.368 85.4684 117.816C85.9947 119.263 86.6526 120.842 87.5737 122.553C87.9026 123.079 88.0342 123.605 88.0342 124.066C88.0342 124.724 87.6395 125.382 86.7842 126.039L82.6395 128.803C82.0474 129.197 81.4553 129.395 80.929 129.395C80.2711 129.395 79.6132 129.066 78.9553 128.474C78.0342 127.487 77.2447 126.434 76.5869 125.382C75.929 124.263 75.2711 123.013 74.5474 121.5C69.4158 127.553 62.9684 130.579 55.2053 130.579C49.679 130.579 45.2711 129 42.0474 125.842C38.8237 122.684 37.179 118.474 37.179 113.211C37.179 107.618 39.1526 103.079 43.1658 99.6579C47.179 96.2368 52.5079 94.5263 59.2842 94.5263C61.5211 94.5263 63.8237 94.7237 66.2579 95.0526C68.6921 95.3816 71.1921 95.9079 73.8237 96.5V91.6974C73.8237 86.6974 72.7711 83.2105 70.7316 81.1711C68.6263 79.1316 65.0737 78.1447 60.0079 78.1447C57.7053 78.1447 55.3368 78.4079 52.9026 79C50.4684 79.5921 48.1 80.3158 45.7974 81.2368C44.7447 81.6974 43.9553 81.9605 43.4947 82.0921C43.0342 82.2237 42.7053 82.2895 42.4421 82.2895C41.5211 82.2895 41.0605 81.6316 41.0605 80.25V77.0263C41.0605 75.9737 41.1921 75.1842 41.5211 74.7237C41.85 74.2632 42.4421 73.8026 43.3632 73.3421C45.6658 72.1579 48.429 71.1711 51.6526 70.3816C54.8763 69.5263 58.2974 69.1316 61.9158 69.1316C69.7447 69.1316 75.4684 70.9079 79.1526 74.4605C82.7711 78.0132 84.6132 83.4079 84.6132 90.6447V111.961H84.7447ZM58.0342 121.961C60.2053 121.961 62.4421 121.566 64.8105 120.776C67.179 119.987 69.2842 118.539 71.0605 116.566C72.1132 115.316 72.9026 113.934 73.2974 112.355C73.6921 110.776 73.9553 108.868 73.9553 106.632V103.868C72.0474 103.408 70.0079 103.013 67.9026 102.75C65.7974 102.487 63.7579 102.355 61.7184 102.355C57.3105 102.355 54.0868 103.211 51.9158 104.987C49.7447 106.763 48.6921 109.263 48.6921 112.553C48.6921 115.645 49.4816 117.947 51.1263 119.526C52.7053 121.171 55.0079 121.961 58.0342 121.961ZM110.863 129.066C109.679 129.066 108.889 128.868 108.363 128.408C107.837 128.013 107.376 127.092 106.982 125.842L91.5211 74.9868C91.1263 73.6711 90.929 72.8158 90.929 72.3553C90.929 71.3026 91.4553 70.7105 92.5079 70.7105H98.9553C100.205 70.7105 101.061 70.9079 101.521 71.3684C102.047 71.7632 102.442 72.6842 102.837 73.9342L113.889 117.487L124.153 73.9342C124.482 72.6184 124.876 71.7632 125.403 71.3684C125.929 70.9737 126.85 70.7105 128.034 70.7105H133.297C134.547 70.7105 135.403 70.9079 135.929 71.3684C136.455 71.7632 136.916 72.6842 137.179 73.9342L147.574 118.013L158.955 73.9342C159.35 72.6184 159.811 71.7632 160.271 71.3684C160.797 70.9737 161.653 70.7105 162.837 70.7105H168.955C170.008 70.7105 170.6 71.2368 170.6 72.3553C170.6 72.6842 170.534 73.0132 170.468 73.4079C170.403 73.8026 170.271 74.3289 170.008 75.0526L154.153 125.908C153.758 127.224 153.297 128.079 152.771 128.474C152.245 128.868 151.389 129.132 150.271 129.132H144.613C143.363 129.132 142.508 128.934 141.982 128.474C141.455 128.013 140.995 127.158 140.732 125.842L130.534 83.4079L120.403 125.776C120.074 127.092 119.679 127.947 119.153 128.408C118.626 128.868 117.705 129.066 116.521 129.066H110.863ZM195.403 130.842C191.982 130.842 188.561 130.447 185.271 129.658C181.982 128.868 179.416 128.013 177.705 127.026C176.653 126.434 175.929 125.776 175.666 125.184C175.403 124.592 175.271 123.934 175.271 123.342V119.987C175.271 118.605 175.797 117.947 176.784 117.947C177.179 117.947 177.574 118.013 177.968 118.145C178.363 118.276 178.955 118.539 179.613 118.803C181.85 119.789 184.284 120.579 186.85 121.105C189.482 121.632 192.047 121.895 194.679 121.895C198.824 121.895 202.047 121.171 204.284 119.724C206.521 118.276 207.705 116.171 207.705 113.474C207.705 111.632 207.113 110.118 205.929 108.868C204.745 107.618 202.508 106.5 199.284 105.447L189.745 102.487C184.942 100.974 181.389 98.7368 179.218 95.7763C177.047 92.8816 175.929 89.6579 175.929 86.2368C175.929 83.4737 176.521 81.0395 177.705 78.9342C178.889 76.8289 180.468 74.9868 182.442 73.5395C184.416 72.0263 186.653 70.9079 189.284 70.1184C191.916 69.3289 194.679 69 197.574 69C199.021 69 200.534 69.0658 201.982 69.2632C203.495 69.4605 204.876 69.7237 206.258 69.9868C207.574 70.3158 208.824 70.6447 210.008 71.0395C211.192 71.4342 212.113 71.8289 212.771 72.2237C213.692 72.75 214.35 73.2763 214.745 73.8684C215.139 74.3947 215.337 75.1184 215.337 76.0395V79.1316C215.337 80.5132 214.811 81.2368 213.824 81.2368C213.297 81.2368 212.442 80.9737 211.324 80.4474C207.574 78.7368 203.363 77.8816 198.692 77.8816C194.942 77.8816 191.982 78.4737 189.942 79.7237C187.903 80.9737 186.85 82.8816 186.85 85.5789C186.85 87.4211 187.508 89 188.824 90.25C190.139 91.5 192.574 92.75 196.061 93.8684L205.403 96.8289C210.139 98.3421 213.561 100.447 215.6 103.145C217.639 105.842 218.626 108.934 218.626 112.355C218.626 115.184 218.034 117.75 216.916 119.987C215.732 122.224 214.153 124.197 212.113 125.776C210.074 127.421 207.639 128.605 204.811 129.461C201.85 130.382 198.758 130.842 195.403 130.842Z"/><path fill="#F90" fill-rule="evenodd" d="M207.837 162.816C186.192 178.803 154.745 187.29 127.705 187.29C89.8105 187.29 55.6658 173.276 29.8763 149.987C27.8369 148.145 29.679 145.645 32.1132 147.092C60.0079 163.276 94.4158 173.079 130.008 173.079C154.021 173.079 180.403 168.079 204.679 157.816C208.297 156.171 211.389 160.184 207.837 162.816Z" clip-rule="evenodd"/><path fill="#F90" fill-rule="evenodd" d="M216.85 152.553C214.087 149 198.561 150.842 191.521 151.697C189.416 151.961 189.087 150.118 190.995 148.737C203.363 140.053 223.692 142.553 226.061 145.447C228.429 148.408 225.403 168.737 213.824 178.474C212.047 179.987 210.337 179.197 211.126 177.224C213.758 170.711 219.613 156.039 216.85 152.553Z" clip-rule="evenodd"/></svg>

<svg xmlns="http://www.w3.org/2000/svg" width="256" height="256" viewBox="0 0 256 256"><g fill="none"><rect width="256" height="256" fill="#242938" rx="60"/><path fill="#fff" d="M84.745 111.961c0 2.434.263 4.407.723 5.855a35.255 35.255 0 0 0 2.106 4.737c.329.526.46 1.052.46 1.513c0 .658-.395 1.316-1.25 1.973l-4.145 2.764c-.592.394-1.184.592-1.71.592c-.658 0-1.316-.329-1.974-.921a20.382 20.382 0 0 1-2.368-3.092a51.088 51.088 0 0 1-2.04-3.882c-5.131 6.053-11.579 9.079-19.342 9.079c-5.526 0-9.934-1.579-13.158-4.737c-3.223-3.158-4.868-7.368-4.868-12.631c0-5.593 1.974-10.132 5.987-13.553c4.013-3.421 9.342-5.132 16.118-5.132c2.237 0 4.54.198 6.974.527s4.934.855 7.566 1.447v-4.803c0-5-1.053-8.487-3.092-10.526c-2.106-2.04-5.658-3.026-10.724-3.026c-2.303 0-4.671.263-7.105.855c-2.435.592-4.803 1.316-7.106 2.237a18.87 18.87 0 0 1-2.302.855c-.46.132-.79.198-1.053.198c-.92 0-1.382-.658-1.382-2.04v-3.224c0-1.052.132-1.842.461-2.302c.329-.46.921-.921 1.842-1.382c2.303-1.184 5.066-2.17 8.29-2.96c3.223-.856 6.644-1.25 10.263-1.25c7.829 0 13.552 1.776 17.237 5.328c3.618 3.553 5.46 8.948 5.46 16.185v21.316zm-26.71 10c2.17 0 4.407-.395 6.776-1.185c2.368-.789 4.473-2.237 6.25-4.21c1.052-1.25 1.842-2.632 2.236-4.211c.395-1.579.658-3.487.658-5.723v-2.764a55.03 55.03 0 0 0-6.052-1.118a49.603 49.603 0 0 0-6.185-.395c-4.408 0-7.631.856-9.802 2.632c-2.171 1.776-3.224 4.276-3.224 7.566c0 3.092.79 5.394 2.434 6.973c1.58 1.645 3.882 2.435 6.908 2.435m52.828 7.105c-1.184 0-1.974-.198-2.5-.658c-.526-.395-.987-1.316-1.381-2.566l-15.46-50.855c-.396-1.316-.593-2.171-.593-2.632c0-1.052.526-1.645 1.579-1.645h6.447c1.25 0 2.106.198 2.566.658c.526.395.921 1.316 1.316 2.566l11.052 43.553l10.264-43.553c.329-1.316.723-2.17 1.25-2.566c.526-.394 1.447-.657 2.631-.657h5.263c1.25 0 2.106.197 2.632.657c.526.395.987 1.316 1.25 2.566l10.395 44.079l11.381-44.079c.395-1.316.856-2.17 1.316-2.566c.526-.394 1.382-.657 2.566-.657h6.118c1.053 0 1.645.526 1.645 1.644c0 .33-.066.658-.132 1.053c-.065.395-.197.92-.46 1.645l-15.855 50.855c-.395 1.316-.856 2.171-1.382 2.566c-.526.394-1.382.658-2.5.658h-5.658c-1.25 0-2.105-.198-2.631-.658c-.527-.461-.987-1.316-1.25-2.632l-10.198-42.434l-10.131 42.368c-.329 1.316-.724 2.171-1.25 2.632c-.527.46-1.448.658-2.632.658zm84.54 1.776c-3.421 0-6.842-.395-10.132-1.184c-3.289-.79-5.855-1.645-7.566-2.632c-1.052-.592-1.776-1.25-2.039-1.842a4.646 4.646 0 0 1-.395-1.842v-3.355c0-1.382.526-2.04 1.513-2.04c.395 0 .79.066 1.184.198c.395.131.987.394 1.645.658a35.818 35.818 0 0 0 7.237 2.302a39.46 39.46 0 0 0 7.829.79c4.145 0 7.368-.724 9.605-2.171c2.237-1.448 3.421-3.553 3.421-6.25c0-1.842-.592-3.356-1.776-4.606c-1.184-1.25-3.421-2.368-6.645-3.421l-9.539-2.96c-4.803-1.513-8.356-3.75-10.527-6.71c-2.171-2.895-3.289-6.12-3.289-9.54c0-2.763.592-5.197 1.776-7.303c1.184-2.105 2.763-3.947 4.737-5.394c1.974-1.514 4.211-2.632 6.842-3.422c2.632-.79 5.395-1.118 8.29-1.118c1.447 0 2.96.066 4.408.263c1.513.197 2.894.46 4.276.724c1.316.329 2.566.658 3.75 1.053c1.184.394 2.105.789 2.763 1.184c.921.526 1.579 1.052 1.974 1.644c.394.527.592 1.25.592 2.172v3.092c0 1.381-.526 2.105-1.513 2.105c-.527 0-1.382-.263-2.5-.79c-3.75-1.71-7.961-2.565-12.632-2.565c-3.75 0-6.71.592-8.75 1.842c-2.039 1.25-3.092 3.158-3.092 5.855c0 1.842.658 3.421 1.974 4.671c1.315 1.25 3.75 2.5 7.237 3.618l9.342 2.96c4.736 1.514 8.158 3.619 10.197 6.317c2.039 2.697 3.026 5.789 3.026 9.21c0 2.829-.592 5.395-1.71 7.632c-1.184 2.237-2.763 4.21-4.803 5.789c-2.039 1.645-4.474 2.829-7.302 3.685c-2.961.921-6.053 1.381-9.408 1.381"/><path fill="#F90" fill-rule="evenodd" d="M207.837 162.816c-21.645 15.987-53.092 24.474-80.132 24.474c-37.894 0-72.04-14.014-97.829-37.303c-2.04-1.842-.197-4.342 2.237-2.895c27.895 16.184 62.303 25.987 97.895 25.987c24.013 0 50.395-5 74.671-15.263c3.618-1.645 6.71 2.368 3.158 5" clip-rule="evenodd"/><path fill="#F90" fill-rule="evenodd" d="M216.85 152.553c-2.763-3.553-18.289-1.711-25.329-.856c-2.105.264-2.434-1.579-.526-2.96c12.368-8.684 32.697-6.184 35.066-3.29c2.368 2.961-.658 23.29-12.237 33.027c-1.777 1.513-3.487.723-2.698-1.25c2.632-6.513 8.487-21.185 5.724-24.671" clip-rule="evenodd"/></g></svg>
